images/house-svg.svg

<svg xmlns="http://www.w3.org/2000/svg" width="1224" height="792" viewBox="0 0 1224 792"><style>.st0{fill:#8E3833;} .st1{fill:#F58250;} .st2{fill:#E06E46;} .st3{fill:none;stroke:#F58250;stroke-width:9;stroke-miterlimit:10;}</style><path id="roof" d="M611.2 304.4h-316.3l158.1-152.2 158.2-152.2 158.1 152.2 158.1 152.2h-316.2z" class="st0"/><path id="main" d="M918.9 792h-614c-9.8 0-17.9-8.1-17.9-17.9v-455.2c0-9.8 8.1-17.9 17.9-17.9h614c9.8 0 17.9 8.1 17.9 17.9v455.3c.2 9.7-7.9 17.8-17.9 17.8z" class="st1"/><g id="door"><path d="M702.6 790.3h-166c-9.8 0-17.9-8.1-17.9-17.9v-225.7c0-9.8 8.1-17.9 17.9-17.9h166c9.8 0 17.9 8.1 17.9 17.9v225.6c0 9.9-8.1 18-17.9 18z" class="st2"/><circle cx="684.2" cy="679.1" r="19.6" class="st0"/></g><g id="window"><path d="M479.8 517.5h-116c-11.3 0-20.6-9.3-20.6-20.6v-116c0-11.3 9.3-20.6 20.6-20.6h116c11.3 0 20.6 9.3 20.6 20.6v116c0 11.3-9.3 20.6-20.6 20.6zm386.6 0h-116c-11.3 0-20.6-9.3-20.6-20.6v-116c0-11.3 9.3-20.6 20.6-20.6h116c11.3 0 20.6 9.3 20.6 20.6v116c0 11.3-9.3 20.6-20.6 20.6z" class="st0"/><path d="M806.9 359.8v158.1m80.8-85.1h-158.1m-309.2-73v158.1m80.7-85.1h-158.1" class="st3"/></g></svg>

<svg xmlns="http://www.w3.org/2000/svg" id="Layer_1" width="1224" height="792" viewBox="0 0 1224 792">
  <style>
    .st0{fill:#8E3833;} .st1{fill:#F58250;} .st2{fill:#E06E46;} .st3{fill:none;stroke:#F58250;stroke-width:9;stroke-miterlimit:10;}
  </style>
  <path id="roof" d="M611.2 304.4H294.9L453 152.2 611.2 0l158.1 152.2 158.1 152.2H611.2z" class="st0"/>
  <path id="main" d="M918.9 792h-614c-9.8 0-17.9-8.1-17.9-17.9V318.9c0-9.8 8.1-17.9 17.9-17.9h614c9.8 0 17.9 8.1 17.9 17.9v455.3c.2 9.7-7.9 17.8-17.9 17.8z" class="st1"/>
  <g id="door">
    <path d="M702.6 790.3h-166c-9.8 0-17.9-8.1-17.9-17.9V546.7c0-9.8 8.1-17.9 17.9-17.9h166c9.8 0 17.9 8.1 17.9 17.9v225.6c0 9.9-8.1 18-17.9 18z" class="st2"/>
    <circle cx="684.2" cy="679.1" r="19.6" class="st0"/>
  </g>
  <g id="window">
    <path d="M479.8 517.5h-116c-11.3 0-20.6-9.3-20.6-20.6v-116c0-11.3 9.3-20.6 20.6-20.6h116c11.3 0 20.6 9.3 20.6 20.6v116c0 11.3-9.3 20.6-20.6 20.6zm386.6 0h-116c-11.3 0-20.6-9.3-20.6-20.6v-116c0-11.3 9.3-20.6 20.6-20.6h116c11.3 0 20.6 9.3 20.6 20.6v116c0 11.3-9.3 20.6-20.6 20.6z" class="st0"/>
    <path d="M806.9 359.8v158.1m80.8-85.1H729.6m-309.2-73v158.1m80.7-85.1H343" class="st3"/>
  </g>
</svg>
